icons/broom.svg

<svg width="16" height="16" viewBox="0 0 16 16" fill="#f4f4f7" fill-opacity="context-fill-opacity"
    xmlns="http://www.w3.org/2000/svg">
    <path
        d="M14.8536 1.14639C14.6583 0.951123 14.3417 0.951123 14.1465 1.14639L9.47596 5.81688C8.02361 4.71413 5.96894 4.87994 4.65264 6.19021L3.96853 6.82872L1.29311 8.04475C1.14382 8.11261 1.03729 8.24936 1.00803 8.41072C0.978769 8.57208 1.03049 8.73753 1.14645 8.85349L7.14645 14.8535C7.26241 14.9695 7.42787 15.0212 7.58923 14.9919C7.75058 14.9627 7.88734 14.8561 7.9552 14.7068L9.16755 12.0395L9.85344 11.3536C11.1784 10.0287 11.2884 7.97029 10.1835 6.52353L14.8536 1.85349C15.0488 1.65823 15.0488 1.34165 14.8536 1.14639ZM4.14134 7.84862L8.15132 11.8586L7.34337 13.6362L2.36375 8.65658L4.14134 7.84862ZM8.74989 11.043L4.96939 7.26246L5.34104 6.91559L5.35344 6.90362C6.41819 5.83887 8.10209 5.80937 9.14633 6.85361C10.2007 7.90803 10.2007 9.59209 9.14633 10.6465L8.74989 11.043Z" />
</svg>

<svg xmlns="http://www.w3.org/2000/svg" width="32" height="16" fill="#f4f4f7" fill-opacity="context-fill-opacity">
    <path
        d="M14.854 1.146a.5.5 0 0 0-.707 0l-4.671 4.67c-1.452-1.102-3.507-.936-4.823.374l-.684.639-2.676 1.216a.5.5 0 0 0-.147.808l6 6a.5.5 0 0 0 .81-.146l1.212-2.668.685-.685a3.668 3.668 0 0 0 .33-4.83l4.67-4.67a.5.5 0 0 0 0-.708ZM4.14 7.85l4.01 4.01-.808 1.777-4.98-4.98 1.778-.807Zm4.609 3.194-3.78-3.78.371-.347.012-.012c1.065-1.065 2.75-1.095 3.793-.05a2.67 2.67 0 0 1 0 3.792l-.396.397Z" />
</svg>
